X:1040
T:Reel des Habitants, Le
R:reel
H:Related to "The Rainy Day", #325, #482
O:Quebec
Z:id:hn-reel-1040
M:C|
L:1/8
K:Ador
E2A2 AGAB | cded cBAB | DGGF GFGA | BcdB cBAG |
A4 EAAB | AGAB cdef | gage dBGB |1 cBAG A2AG :|2 cBAG A3g ||
|: a2ab agef | ~g3a gedg | eaag agef | gedB cAA2 |
eaab agef | gfga gedB | ~g3e dBGB |1 cBAG A2ce :|2 cBAG A2AG ||

